svgs/sharp-light/transporter.svg

<svg xmlns="http://www.w3.org/2000/svg" viewBox="0 0 512 512"><!--! Font Awesome Pro 6.4.0 by @fontawesome - https://fontawesome.com License - https://fontawesome.com/license (Commercial License) Copyright 2023 Fonticons, Inc. --><path d="M480 16V32h16 16V64H496 480V80 96H448V80 64H432 416V32h16 16V16 0h32V16zM64 80V96H80 96v32H80 64v16 16H32V144 128H16 0V96H16 32V80 64H64V80zm192 0a24 24 0 1 0 0-48 24 24 0 1 0 0 48zm0-80a56 56 0 1 1 0 112A56 56 0 1 1 256 0zM96 448h16H400h16v16 32 16H384V496 480H128v16 16H96V496 464 448zm93-304h7.9H315.1 323l4.8 6.3 84.9 112 9.7 12.7-25.5 19.3-9.7-12.7L320 193V304v96 16H288V400 320H224v80 16H192V400 304 193l-67.2 88.7-9.7 12.7L89.6 275.1l9.7-12.7 84.9-112L189 144zm35 32V288h64V176H224z"/></svg>

<svg xmlns="http://www.w3.org/2000/svg" viewBox="0 0 512 512"><!--! Font Awesome Pro 6.6.0 by @fontawesome - https://fontawesome.com License - https://fontawesome.com/license (Commercial License) Copyright 2024 Fonticons, Inc. --><path d="M480 16l0 16 16 0 16 0 0 32-16 0-16 0 0 16 0 16-32 0 0-16 0-16-16 0-16 0 0-32 16 0 16 0 0-16 0-16 32 0 0 16zM64 80l0 16 16 0 16 0 0 32-16 0-16 0 0 16 0 16-32 0 0-16 0-16-16 0L0 128 0 96l16 0 16 0 0-16 0-16 32 0 0 16zm192 0a24 24 0 1 0 0-48 24 24 0 1 0 0 48zm0-80a56 56 0 1 1 0 112A56 56 0 1 1 256 0zM96 448l16 0 288 0 16 0 0 16 0 32 0 16-32 0 0-16 0-16-256 0 0 16 0 16-32 0 0-16 0-32 0-16zm93-304l7.9 0 118.2 0 7.9 0 4.8 6.3 84.9 112 9.7 12.7-25.5 19.3-9.7-12.7L320 193l0 111 0 96 0 16-32 0 0-16 0-80-64 0 0 80 0 16-32 0 0-16 0-96 0-111-67.2 88.7-9.7 12.7L89.6 275.1l9.7-12.7 84.9-112L189 144zm35 32l0 112 64 0 0-112-64 0z"/></svg>
